icons/lines/money-change.svg

<svg xmlns="http://www.w3.org/2000/svg" width="24" height="24" viewBox="0 0 24 24" fill="none" stroke="currentColor" stroke-width="2" stroke-linecap="round" stroke-linejoin="round" >
  <path d="M2 11V9C2 5.5 4 4 7 4H17C20 4 22 5.5 22 9V15C22 18.5 20 20 17 20H12" stroke-miterlimit="10"/>
  <path d="M12 14.5C13.3807 14.5 14.5 13.3807 14.5 12C14.5 10.6193 13.3807 9.5 12 9.5C10.6193 9.5 9.5 10.6193 9.5 12C9.5 13.3807 10.6193 14.5 12 14.5Z" stroke-miterlimit="10"/>
  <path d="M18.5 9.5V14.5" stroke-miterlimit="10"/>
  <path d="M2 15.5H7.34003C7.98003 15.5 8.5 16.02 8.5 16.66V17.94" stroke-miterlimit="10"/>
  <path d="M3.21997 14.28L2 15.5L3.21997 16.72" stroke-miterlimit="10"/>
  <path d="M8.5 20.78H3.15997C2.51997 20.78 2 20.26 2 19.62V18.34" stroke-miterlimit="10"/>
  <path d="M7.28125 22.0003L8.50122 20.7803L7.28125 19.5603" stroke-miterlimit="10"/>
  </svg>

<svg xmlns="http://www.w3.org/2000/svg" width="24" height="24" viewBox="0 0 24 24" fill="none" stroke="currentColor" stroke-width="2" stroke-linecap="round" stroke-linejoin="round">
  <path d="M18.5 9.5v5" />
  <path d="M2 11V9c0-3.5 2-5 5-5h10c3 0 5 1.5 5 5v6c0 3.5-2 5-5 5h-5" />
  <path d="M2 15.5h5.34a1.16 1.16 0 0 1 1.16 1.16v1.28" />
  <path d="M3.22 14.28 2 15.5l1.22 1.22" />
  <path d="m7.281 22 1.22-1.22-1.22-1.22" />
  <path d="M8.5 20.78H3.16A1.16 1.16 0 0 1 2 19.62v-1.28" />
  <circle cx="12" cy="12" r="2.5" />
</svg>
